X: 1902
T: Lochiel's Rant
P: Lochiel's Rant
C:Archibald Duff
R:Strathspey (8x32)
B:RSCDS 19-2
Z:Anselm Lingnau <anselm@strathspey.org>
M:4/4
L:1/8
K:A
%
E|"A"A>B A>a e<c c>e|"E7"E>F "A"A>c "Bm"d/c/B/A/ "E7"G>d|\
  "A"A>B A>a e<c c>e|"D"d/c/B/A/ "E"G>B "A"A2 AE|
  "A"A>B A>a e<c c>e|"E7"E>F "A"A>c "Bm"d/c/B/A/ "E7"G>d|\
  "A"A>B A>a e<c c>e|"D"d/c/B/A/ "E"G>B "A"A2 A||
f|"A"a>b a<e c>d e<c|"Bm"d>e d>c "E7"B>c d>B|\
  "A"a>b a<e "D"c<d "A"e<c|"Bm"d/c/B/A/ "E"G>B "A"A2 Af|
  "A"a>b a<e c>d e<c|"Bm"d>e d>c "E7"B>c d<B|\
  "A"A>E c>A e>c a<c|"Bm"d/c/B/A/ "E"G>B "A"A2 A|]
%%center Book19/1902-Lochiels_Rant-AL.abc

%%sep 1 1 500
%%sep 1 1 500

